X: 1766
T: April Storm
R: jig
M: 6/8
K: Ddorian
|:d2 d2 A/B/c|d2 d2 de|fed cBA|fed cBA|
d2 d2 A/B/c|d2 d2 de|fed cBA|1 GFE D2c:|2 GFE D2C||
|:~D3 EDC|DEG A2B|c3 cAc|AcA GEC|
D2D EDC|DEG Ace|fed cBA|1 GFE D2C:|2 GFE D2c||

